!!!OTL: WER MOECHTE WOHL ZU GANZEN TAGEN
!!!ARE: Europa, Mitteleuropa, Deutschland
!!!SCT: F0729
!!!YEM: Copyright 1995, estate of Helmut Schaffrath.
**kern
*ICvox
*Ivox
*M4/4
*k[f#c#g#]
*A:
{8e
8f#
8g#
=1
4a
4a
4b
4g#
=2
[2a
8a]
{8g#
8a
8b
=3
4cc#
4a
4f#
4d#
=4
2e
8r}
{8e
8f#
8e
=5
4.b
8b
4.b
8a
=6
2g#
8e}
{8e
8f#
8g#
=7
4a
4a
4b
4b
=8
[2cc#
8cc#]
{8b
8a
8g#
=9
4f#
4b
4e
4g#
=10
2a
8r}
{8e
8f#
8g#
=11
4a
4a
4b
4b
=12
[2cc#
8cc#]
{8b
8a
8g#
=13
4f#
4b
4e
4g#
=14
2a
8r}
==
!!!AGN: Geselligkeits -, Trink -, Moral - Lied, national
!!!ONB: ESAC (Essen Associative Code) Database: FINK
!!!AMT: simple quadruple
!!!AIN: vox
!!!EED: Helmut Schaffrath
!!!EEV: 1.0
*-
